src/topics/icons/internetexplorer.svg

<svg height="252" preserveAspectRatio="xMidYMid" viewBox="0 0 256 252" width="256" xmlns="http://www.w3.org/2000/svg"><path d="m256 131.592659c0-20.237712-5.232369-39.2505222-14.4078-55.7717847 39.109783-88.5137494-41.906662-75.54911439-46.417449-74.66651734-17.164127 3.35863956-33.043718 8.75083043-47.69125 15.58618674-2.159978-.1216553-4.333075-.1884464-6.52287-.1884464-54.6649597 0-100.4228457 38.1281924-112.1339543 89.2412957 28.8120227-32.3233279 48.9757871-45.3654883 61.0506689-50.5847378-1.9274011 1.7222569-3.8142505 3.463597-5.6700897 5.2180568-.6178179.5832297-1.2129746 1.1748083-1.8224436 1.761616-1.2237089 1.1771937-2.4450324 2.35558-3.6377311 3.5447006-.7096557.7072703-1.4002283 1.4205042-2.0991497 2.1325453-1.0579238 1.0770069-2.1134621 2.1528212-3.1463392 3.2357916-.7335097.7692907-1.4491289 1.5409667-2.169519 2.3114501-.9648932 1.0328771-1.923823 2.0669469-2.8648623 3.1045947-.7311243.8062644-1.4503216 1.6125287-2.1683262 2.4211784-.8921387 1.0042523-1.7759284 2.0085047-2.6477912 3.0151424-.7227754.8348891-1.4395873 1.6697782-2.1480503 2.50586-.8265402.9756275-1.6423462 1.951255-2.4498032 2.9268826-.7144265.8635139-1.4264676 1.725835-2.1253891 2.5881562-.756171.9326904-1.4956442 1.8641881-2.2339247 2.7944931-.7156192.9016802-1.4312384 1.8021677-2.1301599 2.7026552-.6655258.8575504-1.3119685 1.7115227-1.963182 2.5666877-.7347024.9660859-1.4753683 1.9321719-2.1909876 2.8934871-.5116677.688187-1.0030596 1.369218-1.5051857 2.05502-4.5453748 6.202033-8.6983517 12.284797-12.4493892 18.127828-.0095416.014312-.0190832.028624-.0274321.042937-.9875545 1.538581-1.9405208 3.054501-2.8744038 4.557301-.0500934.081104-.1025721.1634-.1526655.245696-.9350758 1.508764-1.8379487 2.991289-2.7181603 4.458308-.0310102.051286-.0632131.103765-.0942232.155051-2.3663143 3.949025-4.5608799 7.75612-6.5371817 11.337794-10.3609737 18.776656-15.4048965 31.895149-15.62316037 32.673981-32.71811103 116.970348 69.39598177 67.574731 83.64515327 60.201467 15.3428758 7.579601 32.6155388 11.845884 50.8876828 11.845884 50.021784 0 92.580852-31.929737 108.422277-76.518778h-60.445971c-8.944048 15.1103-26.163039 25.344847-45.94514 25.344847-28.983771 0-52.478743-21.959968-52.478743-49.049734h164.539943c.623782-4.851899.947003-9.796827.947003-14.816896zm-21.490045-113.2061911c9.906555 6.686269 17.852314 17.1867884 4.206648 52.5491125-13.087483-21.0475542-32.777746-37.5580824-56.18088-46.6333269 10.646029-5.1417241 37.010634-16.01675096 51.974232-5.9157856zm-210.5304059 216.1659071c-8.0686067-8.274944-9.4950744-28.429167 8.309532-65.154745 8.985792 25.835046 26.9168244 47.482528 50.0933458 61.221224-11.5262404 6.343965-42.1261185 20.627725-58.4028778 3.933521zm66.2794601-119.601441c.9195707-26.3288244 23.8336978-47.4097741 51.9873518-47.4097741 28.15246 0 51.06778 21.0809497 51.987351 47.4097741z" fill="#1ebbee"/></svg>

<?xml version="1.0" encoding="UTF-8" standalone="no"?>
<svg width="256px" height="252px" viewBox="0 0 256 252" version="1.1" xmlns="http://www.w3.org/2000/svg" xmlns:xlink="http://www.w3.org/1999/xlink" preserveAspectRatio="xMidYMid">
    <g>
        <path d="M256,131.592659 C256,111.354947 250.767631,92.3421368 241.5922,75.8208743 C280.701983,-12.6928751 199.685538,0.27175991 195.174751,1.15435696 C178.010624,4.51299652 162.131033,9.90518739 147.483501,16.7405437 C145.323523,16.6188884 143.150426,16.5520973 140.960631,16.5520973 C86.2956713,16.5520973 40.5377853,54.6802897 28.8266767,105.793393 C57.6386994,73.4700651 77.8024638,60.4279047 89.8773456,55.2086552 C87.9499445,56.9309121 86.0630951,58.6722522 84.2072559,60.426712 C83.589438,61.0099417 82.9942813,61.6015203 82.3848123,62.188328 C81.1611034,63.3655217 79.9397799,64.543908 78.7470812,65.7330286 C78.0374255,66.4402989 77.3468529,67.1535328 76.6479315,67.8655739 C75.5900077,68.9425808 74.5344694,70.0183951 73.5015923,71.1013655 C72.7680826,71.8706562 72.0524634,72.6423322 71.3320733,73.4128156 C70.3671801,74.4456927 69.4082503,75.4797625 68.467211,76.5174103 C67.7360867,77.3236747 67.0168894,78.129939 66.2988848,78.9385887 C65.4067461,79.942841 64.5229564,80.9470934 63.6510936,81.9537311 C62.9283182,82.7886202 62.2115063,83.6235093 61.5030433,84.4595911 C60.6765031,85.4352186 59.8606971,86.4108461 59.0532401,87.3864737 C58.3388136,88.2499876 57.6267725,89.1123087 56.927851,89.9746299 C56.17168,90.9073203 55.4322068,91.838818 54.6939263,92.769123 C53.9783071,93.6708032 53.2626879,94.5712907 52.5637664,95.4717782 C51.8982406,96.3293286 51.2517979,97.1833009 50.6005844,98.0384659 C49.865882,99.0045518 49.1252161,99.9706378 48.4095968,100.931953 C47.8979291,101.62014 47.4065372,102.301171 46.9044111,102.986973 C42.3590363,109.189006 38.2060594,115.27177 34.4550219,121.114801 C34.4454803,121.129113 34.4359387,121.143425 34.4275898,121.157738 C33.4400353,122.696319 32.487069,124.212239 31.553186,125.715039 C31.5030926,125.796143 31.4506139,125.878439 31.4005205,125.960735 C30.4654447,127.469499 29.5625718,128.952024 28.6823602,130.419043 C28.65135,130.470329 28.6191471,130.522808 28.588137,130.574094 C26.2218227,134.523119 24.0272571,138.330214 22.0509553,141.911888 C11.6899816,160.688544 6.6460588,173.807037 6.42779493,174.585869 C-26.2903161,291.556217 75.8237767,242.1606 90.0729482,234.787336 C105.415824,242.366937 122.688487,246.63322 140.960631,246.63322 C190.982415,246.63322 233.541483,214.703483 249.382908,170.114442 L188.936937,170.114442 C179.992889,185.224742 162.773898,195.459289 142.991797,195.459289 C114.008026,195.459289 90.513054,173.499321 90.513054,146.409555 L255.052997,146.409555 C255.676779,141.557656 256,136.612728 256,131.592659 L256,131.592659 Z M234.509955,18.3864679 C244.41651,25.0727369 252.362269,35.5732563 238.716603,70.9355804 C225.62912,49.8880262 205.938857,33.377498 182.535723,24.3022535 C193.181752,19.1605294 219.546357,8.28550254 234.509955,18.3864679 L234.509955,18.3864679 Z M23.9795491,234.552375 C15.9109424,226.277431 14.4844747,206.123208 32.2890811,169.39763 C41.2748731,195.232676 59.2059055,216.880158 82.3824269,230.618854 C70.8561865,236.962819 40.2563084,251.246579 23.9795491,234.552375 L23.9795491,234.552375 Z M90.2590092,114.950934 C91.1785799,88.6221096 114.092707,67.5411599 142.246361,67.5411599 C170.398821,67.5411599 193.314141,88.6221096 194.233712,114.950934 L90.2590092,114.950934 L90.2590092,114.950934 Z" fill="#1EBBEE"></path>
    </g>
</svg>
